src/assets/img/icons/preloader/flower.svg

<svg width="57" height="57" viewBox="0 0 57 57" fill="none" xmlns="http://www.w3.org/2000/svg">
<path d="M40.6916 42.8161C45.6685 44.7127 51.2181 42.932 51.4514 42.8548L52.8525 42.3948L52.5501 40.9518C52.5002 40.7106 51.2665 35.0146 47.1355 31.6526L32.3977 30.2129L40.6916 42.8161Z" fill="#C29E2D"/>
<path d="M21.6704 45.7936C22.5165 51.0505 26.8324 55.0772 27.0158 55.2412L28.1144 56.2241L29.2131 55.2412C29.3965 55.0772 33.7123 51.0505 34.5584 45.7936L28.1144 35.0434L21.6704 45.7936Z" fill="#C29E2D"/>
<path d="M3.67864 40.9518L3.37622 42.3947L4.77732 42.8547C5.01056 42.9319 10.5602 44.7126 15.5371 42.8161L20.5317 33.5056L9.09306 31.6525C4.96224 35.0144 3.7285 40.7105 3.67864 40.9518Z" fill="#C29E2D"/>
<path d="M29.0247 38.2446C28.9169 41.058 29.4703 43.6398 30.6445 45.6714C33.7056 50.9749 40.6595 52.4869 40.9539 52.5481L42.3969 52.8505L42.8569 51.4494C42.9116 51.2805 43.6885 48.8564 43.6885 45.8065C43.6885 43.6848 43.312 41.259 42.0558 39.0827C40.8639 37.0189 38.969 35.2977 36.4177 33.9594L29.0247 38.2446Z" fill="#F1D139"/>
<path d="M14.173 39.0825C11.1119 44.3877 13.277 51.163 13.3719 51.4493L13.8319 52.8504L15.2748 52.548C15.5693 52.4868 22.5231 50.9748 25.5843 45.6713C26.7633 43.6283 27.32 41.0482 27.2009 38.1898L19.8176 33.9559C17.2615 35.2943 15.3649 37.0172 14.173 39.0825Z" fill="#F1D139"/>
<path d="M4.77683 13.3693L3.37573 13.8293L3.67816 15.2723C3.72801 15.5135 4.96175 21.2095 9.09268 24.5715L23.8305 26.0112L15.5367 13.4079C10.5598 11.5114 5.01007 13.2921 4.77683 13.3693Z" fill="#C29E2D"/>
<path d="M27.0158 0.982843C26.8324 1.1469 22.5165 5.17362 21.6704 10.4305L28.1144 21.1807L34.5584 10.4305C33.7123 5.17362 29.3965 1.1469 29.2131 0.982843L28.1144 1.87918e-05L27.0158 0.982843Z" fill="#C29E2D"/>
<path d="M40.6919 13.4081L35.6973 22.7186L47.1359 24.5717C51.2667 21.2097 52.5006 15.5138 52.5504 15.2724L52.8528 13.8295L51.4517 13.3695C51.2185 13.2923 45.6688 11.5115 40.6919 13.4081Z" fill="#C29E2D"/>
<path d="M13.3716 4.77471C13.2768 5.06264 11.1099 11.8396 14.1727 17.1415C15.3646 19.2053 17.2595 20.9265 19.8108 22.2648L27.2038 17.9796C27.2972 15.1645 26.7567 12.5844 25.584 10.5527C22.5229 5.24921 15.569 3.7372 15.2746 3.67604L13.8316 3.37361L13.3716 4.77471Z" fill="#F1D139"/>
<path d="M40.954 3.67604C40.6596 3.7372 33.7057 5.24921 30.6446 10.5527C29.4639 12.5972 28.888 15.1919 29.0279 18.0342L36.4113 22.2681C38.9673 20.9297 40.8639 19.2069 42.0558 17.1415C43.312 14.9651 43.6885 12.5393 43.6885 10.4176C43.6885 7.36783 42.9115 4.9436 42.8568 4.77471L42.3968 3.37361L40.954 3.67604Z" fill="#F1D139"/>
<path d="M44.0262 21.5233C50.1538 21.5233 55.0405 26.7942 55.2381 27.0248L56.2265 28.1121L55.2381 29.1993C55.0405 29.4299 50.1538 34.7008 44.0261 34.7008C41.6872 34.7008 39.1834 33.9102 36.7785 32.3947L36.7456 28.1121L36.7456 23.8624C39.1836 22.314 41.6543 21.5233 44.0262 21.5233Z" fill="#F1D139"/>
<path d="M12.2025 21.5232C14.7393 21.5232 17.4734 22.4458 20.0431 24.2246L20.0431 31.9994C17.4734 33.7782 14.7392 34.7007 12.2025 34.7007C6.07507 34.7007 1.18842 29.4299 0.990754 29.1992L0.00244112 28.112L0.990754 27.0247C1.18842 26.7941 6.07507 21.5232 12.2025 21.5232Z" fill="#F1D139"/>
<path d="M19.8796 32.504C17.4418 34.0525 14.971 34.8431 12.5992 34.8431C6.47153 34.8431 1.58487 29.5723 1.38721 29.3416L0.398897 28.2544L19.8796 28.2544L19.8796 32.504Z" fill="#E9CB3F"/>
<path d="M36.825 32.5039C39.2628 34.0524 41.7336 34.843 44.1054 34.843C50.2331 34.843 55.1197 29.5721 55.3174 29.3415L56.3057 28.2543L36.825 28.2543L36.825 32.5039Z" fill="#E9CB3F"/>
<path d="M16.584 28.1121C16.584 34.4702 21.7562 39.6424 28.1143 39.6424C34.4724 39.6424 39.6446 34.4702 39.6446 28.1121C39.6446 21.7539 34.4724 16.5818 28.1143 16.5818C21.7562 16.5818 16.584 21.7539 16.584 28.1121Z" fill="#5C493B"/>
<path d="M28.1138 16.5817C34.472 16.5817 39.6441 21.7539 39.6441 28.112L16.5835 28.112C16.5835 21.7539 21.7557 16.5817 28.1138 16.5817Z" fill="#4E3B2D"/>
<path d="M23.1726 26.4649L23.1726 29.7593L26.467 29.7593L26.467 26.4649L23.1726 26.4649Z" fill="#45382E"/>
<path d="M29.7612 26.4648L29.7612 29.7592L33.0556 29.7592L33.0556 26.4648L29.7612 26.4648Z" fill="#45382E"/>
<path d="M26.4673 29.7592L26.4673 33.0536L29.7617 33.0536L29.7617 29.7592L26.4673 29.7592Z" fill="#45382E"/>
<path d="M26.4673 23.1705L26.4673 26.4648L29.7617 26.4648L29.7617 23.1705L26.4673 23.1705Z" fill="#34281F"/>
<path d="M23.1726 26.4648L23.1726 28.112L26.467 28.112L26.467 26.4648L23.1726 26.4648Z" fill="#34281F"/>
<path d="M29.7612 26.4649L29.7612 28.1121L33.0556 28.1121L33.0556 26.4649L29.7612 26.4649Z" fill="#34281F"/>
</svg>

<svg width="57" height="57" fill="none" xmlns="http://www.w3.org/2000/svg"><path d="M40.692 42.816c4.977 1.897 10.526.116 10.76.039l1.4-.46-.302-1.443c-.05-.241-1.283-5.937-5.414-9.3l-14.738-1.44 8.294 12.604zM21.67 45.794c.846 5.257 5.162 9.283 5.346 9.447l1.098.983 1.1-.983c.183-.164 4.498-4.19 5.344-9.447l-6.444-10.75-6.444 10.75zM3.679 40.952l-.303 1.443 1.401.46c.234.077 5.783 1.858 10.76-.039l4.995-9.31-11.439-1.854c-4.13 3.362-5.364 9.059-5.414 9.3z" fill="#C29E2D"/><path d="M29.025 38.245c-.108 2.813.445 5.395 1.62 7.426 3.06 5.304 10.015 6.816 10.309 6.877l1.443.302.46-1.4c.055-.17.831-2.594.831-5.644 0-2.121-.376-4.547-1.632-6.723-1.192-2.064-3.087-3.785-5.638-5.124l-7.393 4.286zm-14.852.838c-3.061 5.305-.896 12.08-.801 12.366l.46 1.401 1.443-.302c.294-.061 7.248-1.573 10.31-6.877 1.178-2.043 1.735-4.623 1.616-7.481l-7.383-4.234c-2.556 1.338-4.453 3.061-5.645 5.127z" fill="#F1D139"/><path d="M4.777 13.37l-1.401.46.302 1.442c.05.242 1.284 5.937 5.415 9.3l14.738 1.44-8.294-12.604c-4.977-1.897-10.527-.116-10.76-.039zM27.016.983c-.184.164-4.5 4.19-5.346 9.447l6.444 10.75 6.444-10.75c-.846-5.256-5.162-9.283-5.345-9.447L28.114 0l-1.098.983zm13.676 12.425l-4.995 9.31 11.439 1.854c4.13-3.362 5.365-9.058 5.414-9.3l.303-1.443-1.401-.46c-.233-.077-5.783-1.857-10.76.04z" fill="#C29E2D"/><path d="M13.372 4.775c-.095.288-2.262 7.065.8 12.367 1.193 2.063 3.087 3.785 5.639 5.123l7.393-4.285c.093-2.816-.447-5.396-1.62-7.427-3.061-5.304-10.015-6.816-10.31-6.877l-1.442-.302-.46 1.4zm27.582-1.099c-.294.061-7.248 1.573-10.31 6.877-1.18 2.044-1.756 4.639-1.616 7.481l7.383 4.234c2.556-1.338 4.453-3.061 5.645-5.127 1.256-2.176 1.633-4.602 1.633-6.723 0-3.05-.778-5.474-.832-5.643l-.46-1.401-1.443.302zm3.072 17.847c6.128 0 11.014 5.271 11.212 5.502l.989 1.087-.989 1.087c-.197.23-5.084 5.502-11.212 5.502-2.339 0-4.843-.79-7.248-2.306l-.032-4.283v-4.25c2.438-1.548 4.908-2.339 7.28-2.339zm-31.823 0c2.536 0 5.27.923 7.84 2.702v7.774c-2.57 1.78-5.304 2.702-7.84 2.702C6.075 34.7 1.188 29.43.99 29.199l-.989-1.087.989-1.087c.197-.23 5.084-5.502 11.211-5.502z" fill="#F1D139"/><path d="M19.88 32.504c-2.438 1.549-4.909 2.34-7.28 2.34-6.128 0-11.015-5.272-11.213-5.502L.4 28.254h19.48v4.25zm16.945 0c2.438 1.548 4.909 2.339 7.28 2.339 6.128 0 11.015-5.27 11.212-5.502l.989-1.087H36.825v4.25z" fill="#E9CB3F"/><path d="M16.584 28.112c0 6.358 5.172 11.53 11.53 11.53s11.53-5.172 11.53-11.53-5.172-11.53-11.53-11.53-11.53 5.172-11.53 11.53z" fill="#5C493B"/><path d="M28.114 16.582c6.358 0 11.53 5.172 11.53 11.53h-23.06c0-6.358 5.172-11.53 11.53-11.53z" fill="#4E3B2D"/><path d="M23.173 26.465v3.294h3.294v-3.294h-3.294zm6.588 0v3.294h3.295v-3.294H29.76zm-3.294 3.295v3.294h3.295v-3.295h-3.295z" fill="#45382E"/><path d="M26.467 23.17v3.295h3.295V23.17h-3.295zm-3.294 3.295v1.647h3.294v-1.647h-3.294z" fill="#34281F"/><path d="M29.761 26.465v1.647h3.295v-1.647H29.76z" fill="#34281F"/></svg>
